X:1
T:Title
%%score ( 1 2 ) ( 3 4 )
L:1/8
Q:1/4=100
M:4/4
K:F
V:1 treble nm="Midi_20"
V:2 treble 
V:3 bass nm="Midi_20"
V:4 bass 
V:1
"^Psalm 32 (66. 66)""^Henry Lawes\n(1596-1662)" F4 | G2 F2 B2 B2 | A4 || A4 | c2 G2 B2 A2 | G4 || %6
 G4 | G2 A2 F2 G2 | E4 || c4 | B2 c2 A2 G2 | F4 |] %12
V:2
 C4 | D2 F2 F2 E2 | F4 || C4 | C2 C2 D2 CD | E4 || C4 | C2 C2 D2 D2 | C4 || C4 | D2 C2 CD E2 | %11
 F4 |] %12
V:3
 A,4 | B,2 C2 B,2 B,2 | C4 || A,4 | G,2 G,2 F,2 A,B, | C4 || (E,3 F,) | G,2 F,2 A,2 B,2 | G,4 || %9
 F,4 | F,2 F,2 F,2 G,2 | A,4 |] %12
V:4
 F,4 | B,2 A,2 G,2 G,2 | F,4 || F,4 | E,2 _E,2 D,2 F,2 | C,4 || (C,3 D,) | E,2 F,2 D,2 B,,2 | %8
 C,4 || A,,4 | B,,2 A,,B,, C,2 C,2 | F,4 |] %12

